X:1
T:Title
%%score ( 1 2 ) 3
L:1/8
Q:1/4=95
M:4/4
K:Ab
V:1 treble nm="Grand Piano, Soprano"
V:2 treble 
V:3 bass nm="Choir Pad, A Plaintive Plea, Brooks"
V:1
 [CE]<[CA] [DB]<[Ec]- [Ec]4 | [CE]<[B,G] [DB]<[CA]- [CA]4 | %2
w: By~Daniel~Otis~Teasley * * * *||
 z/ [CE]3/2- [CE]<[DF]- [DF]>[DA]- [DA]<[Fd]- | [Fd]<[Fd]- [Fd]<[Ec]- [Ec]4 | %4
w: ||
 [CE]<[CA] [DB]<[Ec]- [Ec]4 | [_Ge]<[Ge] [Ge]<[Fd]- [Fd]4 | %6
w: ||
 z/ [Fd]3/2- [Fd]<[Ec]- [Ec]>[DB]- [DB]<[CA]- | [CA]<[CG]- [CG]<[CF]- [CF]4 | z2 z/ A3/2- A4 | %9
w: |||
 z2 z/ c3/2- c4 | c<c .A2 =E<E E<E | z2 z/ F3/2- F4 | [CE]<[CA] [DB]<[Ec]- [Ec]4 | %13
w: ||||
 [_Ge]<[Ge] [Ge]<[Fd]- [Fd]4 | z/ [Fd]3/2- [Fd]<[Ec]- [Ec]>[DB]- [DB]<[CA]- | %15
w: ||
 [CA]<[DG]- [DG]<[CA]- [CA]4- | [CA] z z2 z4 |] %17
w: ||
V:2
 x8 | x8 | x8 | x8 | x8 | x8 | x8 | x8 | C<F .G2 C<C C<C | G<A .B2 F<F F<F | z2 z/ G3/2- G4 | %11
 A<G .G2 C<C C<C | x8 | x8 | x8 | x8 | x8 |] %17
V:3
 z4 [A,,A,]<[A,,A,] [A,,A,]<[A,,A,] | z4 [A,,A,]<[A,,A,] [A,,A,]<[A,,A,] | %2
 z/ [A,,A,]3/2- [A,,A,]<[D,A,]- [D,A,]>[D,F,]- [D,F,]<[D,A,]- | %3
 [D,A,]<[D,A,]- [D,A,]<[A,,A,]- [A,,A,]4 | z4 [A,,A,]<[A,,A,] [A,,A,]<[A,,A,] | %5
 z4 [D,A,]<[D,A,] [D,A,]<[D,A,] | z/ [B,,A,]3/2- [B,,A,]<[C,A,]- [C,A,]>[D,F,]- [D,F,]<[E,A,]- | %7
 [E,A,]<[F,B,]- [F,B,]<[F,A,]- [F,A,]4 | z4 [F,A,]<[F,A,] [F,A,]<[F,A,] | %9
 z4 [F,A,]<[F,A,] [F,A,]<[F,A,] | z4 [C,C]<[C,C] [C,C]<[C,C] | z4 [F,A,]<[F,A,] [F,A,]<[F,A,] | %12
 z4 [A,,A,]<[A,,A,] [A,,A,]<[A,,A,] | z4 [D,A,]<[D,A,] [D,A,]<[D,A,] | %14
 z/ [D,A,]3/2- [D,A,]<[C,A,]- [C,A,]>[D,F,]- [D,F,]<E, | %15
 z/ [E,,E,]3/2- [E,,E,]<[A,,E,]- [A,,E,]4- | [A,,E,] z z2 z4 |] %17

